tools/download-figma-icons/icons/outlined-medium/regenerative-energy.svg

<svg width="24" height="24" viewBox="0 0 24 24" fill="none" xmlns="http://www.w3.org/2000/svg">
<path fill-rule="evenodd" clip-rule="evenodd" d="M20.4549 3.46346C16.0959 -0.858741 9.17572 -1.12799 4.49727 2.65422V0.749992C4.49727 0.335247 4.16127 0 3.74802 0C3.33328 0 2.99803 0.335247 2.99803 0.749992V4.49995C2.99803 4.9147 3.33328 5.24995 3.74802 5.24995H7.49724C7.91123 5.24995 8.24723 4.9147 8.24723 4.49995C8.24723 4.08521 7.91123 3.74996 7.49724 3.74996H5.53676C9.62721 0.519745 15.6159 0.776242 19.3989 4.52845C22.3058 7.41142 23.2718 11.7126 21.8588 15.4866C21.7141 15.8751 21.9098 16.3071 22.2983 16.4518C22.3846 16.4841 22.4738 16.4998 22.5616 16.4998C22.8653 16.4998 23.1511 16.3138 23.2636 16.0123C24.8828 11.6864 23.7811 6.76043 20.4549 3.46346ZM20.2461 18.7497H16.4962C16.0814 18.7497 15.7462 19.0849 15.7462 19.4997C15.7462 19.9144 16.0814 20.2497 16.4962 20.2497H18.4574C14.3722 23.4799 8.39251 23.2234 4.6133 19.4712C1.68608 16.5642 0.720839 12.2652 2.15557 8.51753C2.30407 8.13129 2.10982 7.69779 1.72358 7.54929C1.33958 7.40154 0.903837 7.59429 0.755338 7.98204C-0.893145 12.2825 0.207844 17.2099 3.55806 20.5362C5.87929 22.8409 8.92875 23.9936 11.979 23.9936C14.6467 23.9936 17.3159 23.1109 19.4961 21.3461V23.2496C19.4961 23.6644 19.8314 23.9996 20.2461 23.9996C20.6609 23.9996 20.9961 23.6644 20.9961 23.2496V19.4997C20.9961 19.0849 20.6609 18.7497 20.2461 18.7497ZM12.096 5.62764C12.3 5.2684 12.7598 5.1409 13.119 5.34865C13.4783 5.55414 13.6035 6.01239 13.398 6.37163L10.8526 10.8281L14.484 12.0386C14.697 12.1098 14.8673 12.2718 14.9475 12.4826C15.027 12.6918 15.009 12.9266 14.8973 13.1216L11.898 18.3715C11.76 18.6138 11.5073 18.7495 11.2463 18.7495C11.1203 18.7495 10.9921 18.718 10.8751 18.6505C10.5151 18.445 10.3898 17.9875 10.5961 17.6275L13.1415 13.1718L9.51007 11.9606C9.29632 11.8901 9.12682 11.7273 9.04582 11.5173C8.96632 11.3073 8.98432 11.0726 9.09607 10.8776L12.096 5.62764Z" fill="black"/>
</svg>

<svg xmlns="http://www.w3.org/2000/svg" width="24" height="24" fill="none" viewBox="0 0 24 24"><path fill="currentColor" fill-rule="evenodd" d="M20.455 3.463c-4.36-4.322-11.28-4.591-15.958-.809V.75a.75.75 0 1 0-1.499 0V4.5c0 .415.335.75.75.75h3.75a.75.75 0 1 0 0-1.5H5.536C9.627.52 15.616.776 19.399 4.528c2.907 2.883 3.873 7.185 2.46 10.959a.75.75 0 1 0 1.405.525c1.619-4.326.517-9.252-2.81-12.549m-.209 15.287h-3.75a.75.75 0 1 0 0 1.5h1.961c-4.085 3.23-10.064 2.973-13.844-.779C1.686 16.564.721 12.265 2.156 8.518a.75.75 0 1 0-1.4-.536c-1.65 4.3-.548 9.228 2.802 12.554a11.92 11.92 0 0 0 8.421 3.458 11.93 11.93 0 0 0 7.517-2.648v1.904a.75.75 0 1 0 1.5 0V19.5a.75.75 0 0 0-.75-.75m-8.15-13.122a.75.75 0 0 1 1.302.744l-2.545 4.456 3.631 1.21a.75.75 0 0 1 .413 1.084l-2.999 5.25a.75.75 0 0 1-1.023.279.75.75 0 0 1-.279-1.023l2.546-4.456L9.51 11.96a.75.75 0 0 1-.414-1.083z" clip-rule="evenodd"/></svg>
